src/asset/24px/image.svg

<svg width="24" height="24" viewBox="0 0 24 24" fill="none" xmlns="http://www.w3.org/2000/svg">
<path fill-rule="evenodd" clip-rule="evenodd" d="M3 5.99973C3 4.34287 4.34315 2.99973 6 2.99973H18C19.6569 2.99973 21 4.34287 21 5.99973V17.9997C21 19.6566 19.6569 20.9997 18 20.9997H6C4.34315 20.9997 3 19.6566 3 17.9997V5.99973ZM6 4.99973C5.44772 4.99973 5 5.44744 5 5.99973V14.9997H19V5.99973C19 5.44744 18.5523 4.99973 18 4.99973H6ZM19 16.9997H5V17.9997C5 18.552 5.44772 18.9997 6 18.9997H18C18.5523 18.9997 19 18.552 19 17.9997V16.9997Z" fill="#808080"/>
<path fill-rule="evenodd" clip-rule="evenodd" d="M10.75 5.99973C11.0948 5.99973 11.4153 6.17735 11.598 6.46973L13.25 9.11293L13.652 8.46973C13.8347 8.17735 14.1552 7.99973 14.5 7.99973C14.8448 7.99973 15.1653 8.17735 15.348 8.46973L17.848 12.4697C18.1407 12.9381 17.9983 13.555 17.53 13.8477C17.0617 14.1404 16.4447 13.9981 16.152 13.5297L14.5 10.8865L14.098 11.5297C13.9153 11.8221 13.5948 11.9997 13.25 11.9997C12.9052 11.9997 12.5847 11.8221 12.402 11.5297L10.75 8.88652L7.848 13.5297C7.55529 13.9981 6.93834 14.1404 6.47 13.8477C6.00166 13.555 5.85929 12.9381 6.152 12.4697L9.902 6.46973C10.0847 6.17735 10.4052 5.99973 10.75 5.99973Z" fill="#808080"/>
</svg>

<svg width="24" height="24" fill="none" xmlns="http://www.w3.org/2000/svg"><path fill-rule="evenodd" clip-rule="evenodd" d="M3 6a3 3 0 013-3h12a3 3 0 013 3v12a3 3 0 01-3 3H6a3 3 0 01-3-3V6zm3-1a1 1 0 00-1 1v9h14V6a1 1 0 00-1-1H6zm13 12H5v1a1 1 0 001 1h12a1 1 0 001-1v-1z" fill="gray"/><path fill-rule="evenodd" clip-rule="evenodd" d="M10.75 6a1 1 0 01.848.47l1.652 2.643.402-.643a1 1 0 011.696 0l2.5 4a1 1 0 01-1.696 1.06L14.5 10.887l-.402.643a1 1 0 01-1.696 0L10.75 8.887 7.848 13.53a1 1 0 11-1.696-1.06l3.75-6A1 1 0 0110.75 6z" fill="gray"/></svg>
